X: 1
T: Scott Meikle
C:\251 George Meikle
B: George Meikle "Originally Mine" p.6
R: reel
Z: 2010 John Chambers <jc:trillian.mit.edu>
M: 4/4
L: 1/8
K: F
AG \
|:"F"FAcd "E/C7"cA^GA | "Dm"FAcd "C7"cA^GA \
| "F"FAcd "F#/D7"cBAc | "Gm"B2G2 "G7"G2-G^d |
  "C"eGfG "G7"gGfG | "C"eGgG "B/G7"fGeG \
| "C"ec=Bc "E/C7"dcde |1 "F"fAeA "C7"dAcA :|2 "F"f2c2 "C7"d2e2 ||
|:"F"fcgc "E/C"acgc | "Dm"fcac "C7"gcfc \
| "F"fcgc "A/F"acgc | "G/C7"e2c2 "C7"c2-cd |
  "C"ecfc "G/C"gcfc | "C"ecgc "G/C"fcec \
| "C"ec=Bc "E/C7"dcde |1 "F"fAeA "C7"dAcA :|2 "F"f4 "F"f4 |]
%%begintext align
This was written for my son Scott and is probably the favourite of my compositions. It is one of these
tunes which have something about them which always seems to get the Country Dancers "going".  I first
recorded this as the original for John Drewry's "Crossing the Line" on one of the Highlander CD's.
Alice McLean used the tune as the original tune for a dance included in her "Laurieston Collection"
which she wrote for Scott after he had been asked to dance for the Queen at a special function in
Edinburgh City Chambers to celebrate 75 years of the RSCDS.
%%endtext

%%sep 1 1 500
%%sep 1 1 500

